X:17827
T:Tripping Up the Stairs
T:Tripping Upstairs
R:jig
Z:id:hn-jig-47
M:6/8
K:D
FAA GBB|FAd fed|cBc ABc|dfe dAG|FAA GBB|FAd fed|cBc ABc|1 dfe d2A:|2 dfe d2c||
|:dBB fBB|faf fed|cAA eAA|efe edc|dBB fBB|faf fed|cBc ABc|1 dfe d2c:|2 dfe d2A||
